X: 1
T: T:Beebe's -- Hornpipe
B: Ryan's Mammoth Collection of Fiddle Tunes
M: 2/4
L: 1/16
Z: Contributed 20030307164608 by Bob Puckette bob:puckette.com
K: Bb
uF2|dFcF "Segue"B(FEF)|dFcF B(F=EF)|fBAB .g(f=ef)|fdBd c3uF|
dFcF B(F=EF)|dFcF B(F=EF)|dBAB fbab|gecA B2:|
(ude)|.f2(fg) fedf|gagf gabg|f=efg fdBd|cBAG .F2(d_e)|
f=efg f_edf|gagf gabg|fbab gecA|B2d2B2:|
